images/facebook.svg

<svg width="32" height="32" viewBox="0 0 32 32" fill="#000" xmlns="http://www.w3.org/2000/svg">
	<circle cx="16" cy="16" r="16" fill="#E9E9E9"/>
	<path d="M17.5 19.9687C17.5 21.2249 17.4969 22.478 17.5031 23.7343C17.5031 23.8718 17.4656 23.9093 17.3281 23.9062C16.2594 23.8999 15.1938 23.8999 14.125 23.9062C13.9781 23.9062 13.9313 23.8718 13.9313 23.7187C13.9375 21.228 13.9344 18.7405 13.9344 16.2499C13.9344 15.9999 13.9625 16.0312 13.7063 16.028C13.2531 16.028 12.8 16.0249 12.3469 16.0312C12.2375 16.0312 12.2063 15.9968 12.2063 15.8874C12.2094 15.0968 12.2094 14.303 12.2063 13.5124C12.2063 13.403 12.2375 13.3687 12.3469 13.3718C12.8219 13.378 13.2938 13.3687 13.7688 13.378C13.8969 13.3812 13.9375 13.3468 13.9375 13.2124C13.9313 12.5468 13.9375 11.878 13.9344 11.2124C13.9313 10.6593 14.0156 10.1249 14.2938 9.63741C14.5938 9.10616 15.0438 8.74053 15.6 8.50303C16.0688 8.30303 16.5625 8.20928 17.0688 8.18116C18.0719 8.12491 19.0781 8.17178 20.0813 8.15303C20.1938 8.14991 20.2219 8.19053 20.2219 8.29678C20.2188 9.11866 20.2188 9.94366 20.2219 10.7655C20.2219 10.8905 20.175 10.9093 20.0656 10.9093C19.4875 10.9062 18.9094 10.9062 18.3313 10.9062C17.85 10.9062 17.5031 11.253 17.5031 11.728C17.5031 12.2187 17.5094 12.7062 17.5 13.1968C17.4969 13.3374 17.5438 13.3718 17.6781 13.3718C18.4688 13.3655 19.2625 13.3718 20.0531 13.3655C20.1844 13.3655 20.2281 13.403 20.2125 13.5343C20.1656 13.9374 20.125 14.3405 20.0813 14.7437C20.0406 15.1312 19.9719 15.5155 19.9094 15.8999C19.8906 16.0093 19.8563 16.0343 19.7563 16.0343C19.0781 16.0312 18.4031 16.0312 17.725 16.0343C17.4594 16.0343 17.4969 15.9999 17.4969 16.2687C17.5 17.4999 17.5 18.7343 17.5 19.9687Z"/>
</svg>

<svg width="32" height="32" xmlns="http://www.w3.org/2000/svg"><circle cx="16" cy="16" r="16" fill="#E9E9E9"/><path d="M17.5 19.969c0 1.256-.003 2.509.003 3.765 0 .138-.037.175-.175.172a271.427 271.427 0 00-3.203 0c-.147 0-.194-.034-.194-.187.007-2.491.003-4.979.003-7.47 0-.25.029-.218-.228-.221-.453 0-.906-.003-1.36.003-.108 0-.14-.034-.14-.144.003-.79.003-1.584 0-2.375 0-.109.032-.143.14-.14.476.006.948-.003 1.423.006.128.003.168-.031.168-.166-.006-.665 0-1.334-.003-2-.003-.553.082-1.087.36-1.575.3-.53.75-.896 1.306-1.134.469-.2.963-.294 1.469-.322 1.003-.056 2.01-.01 3.012-.028.113-.003.14.038.14.144-.002.822-.002 1.647 0 2.468 0 .125-.046.144-.155.144-.578-.003-1.157-.003-1.735-.003-.481 0-.828.347-.828.822 0 .49.006.978-.003 1.469-.003.14.044.175.178.175.79-.006 1.584 0 2.375-.006.131 0 .175.037.16.168-.047.403-.088.806-.132 1.21-.04.387-.11.771-.172 1.156-.018.11-.053.134-.153.134-.678-.003-1.353-.003-2.031 0-.266 0-.228-.034-.228.235.003 1.23.003 2.465.003 3.7z"/></svg>
